public/item-world.svg

<svg width="20" height="20" fill="none" xmlns="http://www.w3.org/2000/svg"><path fill-rule="evenodd" clip-rule="evenodd" d="M10 0C4.48 0 0 4.48 0 10s4.48 10 10 10 10-4.48 10-10S15.52 0 10 0zM2 10c0-.61.08-1.21.21-1.78L6.99 13v1c0 1.1.9 2 2 2v1.93C5.06 17.43 2 14.07 2 10zm11.99 4c.9 0 1.64.59 1.9 1.4A7.991 7.991 0 0018 10c0-3.35-2.08-6.23-5.01-7.41V3c0 1.1-.9 2-2 2h-2v2c0 .55-.45 1-1 1h-2v2h6c.55 0 1 .45 1 1v3h1z" fill="#000"/></svg>

<svg width="20" height="20" viewBox="0 0 20 20" fill="none" xmlns="http://www.w3.org/2000/svg">
<path fill-rule="evenodd" clip-rule="evenodd" d="M10 0C4.48 0 0 4.48 0 10C0 15.52 4.48 20 10 20C15.52 20 20 15.52 20 10C20 4.48 15.52 0 10 0ZM2 10C2 9.39 2.08 8.79 2.21 8.22L6.99 13V14C6.99 15.1 7.89 16 8.99 16V17.93C5.06 17.43 2 14.07 2 10ZM13.99 14C14.89 14 15.63 14.59 15.89 15.4C17.19 13.98 18 12.08 18 10C18 6.65 15.92 3.77 12.99 2.59V3C12.99 4.1 12.09 5 10.99 5H8.99V7C8.99 7.55 8.54 8 7.99 8H5.99V10H11.99C12.54 10 12.99 10.45 12.99 11V14H13.99Z" fill="black"/>
</svg>
